img/icon_facebook-black.svg

<svg width="45" height="46" viewBox="0 0 45 46" fill="none" xmlns="http://www.w3.org/2000/svg">
<path fill-rule="evenodd" clip-rule="evenodd" d="M22.5 0.75293C10.0736 0.75293 0 10.8265 0 23.2529C0 35.6793 10.0736 45.7529 22.5 45.7529C34.9264 45.7529 45 35.6793 45 23.2529C45 10.8265 34.9264 0.75293 22.5 0.75293ZM24.8452 24.2413V36.4825H19.7803V24.2418H17.25V20.0234H19.7803V17.4907C19.7803 14.0494 21.2092 12.003 25.2686 12.003H28.6482V16.2219H26.5357C24.9555 16.2219 24.8509 16.8114 24.8509 17.9116L24.8452 20.0229H28.6721L28.2243 24.2413H24.8452Z" fill="#424242"/>
</svg>

<svg width="45" height="46" fill="none" xmlns="http://www.w3.org/2000/svg"><path fill-rule="evenodd" clip-rule="evenodd" d="M22.5.753C10.074.753 0 10.826 0 23.253c0 12.426 10.074 22.5 22.5 22.5S45 35.679 45 23.253C45 10.826 34.926.753 22.5.753zm2.345 23.488v12.242H19.78V24.242h-2.53v-4.219h2.53v-2.532c0-3.442 1.43-5.488 5.489-5.488h3.38v4.219h-2.113c-1.58 0-1.685.59-1.685 1.69l-.006 2.11h3.827l-.448 4.22h-3.379z" fill="#424242"/></svg>
